X:533
T: Verhngnisvoller Irrtum (234), S.505
N: T0421
O: Luxemburg
S: Singendes Volk, Esch-Alzette, 1937 posth.]
N: Heffingen, fff Marie Berchem, 1908
R: Jgerlied]
M: 6/8
L: 1/16
K: C
E2 | E4C2C4A2 | A4G2G4
E2 | G4F2D4E2 | C4z6
E2 | E4C2C4A2 | A4G2G4
E2 | G4F2D4E2 | C4z6
E2 | D3DD2D4D2 | D4c2c4
c2 | c4c2d4c2 | B4A2G4
E2 | E4C2C4A2 | A2G2G2G4
E2 | G4F2D4E2 | C4z6
E2 | D3DD2D4D2 | D4c2c4
c2 | c4c2d4c2 | B4A2G4
E2 | E4C2C4A2 | A2G2G2G4
E2 | G4F2D4E2 | C4z6

@@@ Tune index: 8587
